images/synthdao_logo.svg

<svg xmlns="http://www.w3.org/2000/svg" viewBox="0 0 1311 294">
  <defs>
    <filter id="a" width="104.1%" height="122.9%" x="-2.3%" y="-9.2%" filterUnits="objectBoundingBox">
      <feOffset dy="4" in="SourceAlpha" result="shadowOffsetOuter1"/>
      <feGaussianBlur in="shadowOffsetOuter1" result="shadowBlurOuter1" stdDeviation="4"/>
      <feColorMatrix in="shadowBlurOuter1" result="shadowMatrixOuter1" values="0 0 0 0 0 0 0 0 0 0 0 0 0 0 0 0 0 0 0.5 0"/>
      <feMerge>
        <feMergeNode in="shadowMatrixOuter1"/>
        <feMergeNode in="SourceGraphic"/>
      </feMerge>
    </filter>
  </defs>
  <g fill="none" fill-rule="evenodd" filter="url(#a)" transform="translate(23 17)">
    <path fill="#FFF" fill-rule="nonzero" d="M388.992 188.392c17.664 0 29.930667-2.545333 36.8-7.636 6.869333-5.090667 10.304-14.750667 10.304-28.98 0-9.568-2.024-17.326667-6.072-23.276-4.048-5.949333-10.978667-10.641333-20.792-14.076l-24.104-8.28c-5.152-1.717333-8.648-3.496-10.488-5.336-1.84-1.84-2.76-4.8453333-2.76-9.016 0-5.152 1.226667-8.372 3.68-9.66 2.453333-1.288 7.36-1.932 14.72-1.932 15.824 0 29.072.184 39.744.552l1.84-19.136c-11.653333-3.312-25.576-4.968-41.768-4.968-17.173333 0-29.164 2.3613333-35.972 7.084-6.808 4.7226667-10.212 14.076-10.212 28.06 0 9.568 2.024 17.296 6.072 23.184 4.048 5.888 10.794667 10.549333 20.24 13.984l25.576 9.016c4.538667 1.472 7.666667 3.097333 9.384 4.876 1.717333 1.778667 2.576 4.814667 2.576 9.108 0 5.029333-1.257333 8.341333-3.772 9.936-2.514667 1.594667-7.513333 2.392-14.996 2.392-1.84 0-15.824-.306667-41.952-.92l-1.656 20.24c14.72 3.189333 29.256 4.784 43.608 4.784zm69.550115 34.592c7.114666.858667 13.585333.368 19.412-1.472 5.826666-1.84 10.702666-4.692 14.628-8.556 3.925333-3.864 7.145333-7.881333 9.66-12.052 2.514666-4.170667 4.630666-8.709333 6.348-13.616l32.2-92h-29.072l-16.744 58.696c-.368 1.349333-.981334 3.588-1.84 6.716-.858667 3.128-1.472 5.428-1.84 6.9h-2.392c-.736-4.784-1.656-9.322667-2.76-13.616l-16.928-58.696h-29.072l29.624 84.088c1.349333 4.416 4.293333 6.624 8.832 6.624h5.152l-.368.736c-2.330667 5.274667-5.581334 9.476-9.752 12.604-4.170667 3.128-9.936 5.673333-17.296 7.636l2.208 16.008zM577.772229 186v-62.008c11.04-5.52 19.442667-8.28 25.208-8.28 3.312 0 5.612.766667 6.9 2.3 1.288 1.533333 1.932 4.324 1.932 8.372V186h27.048v-68.08c0-8.218667-2.177333-14.474667-6.532-18.768-4.354667-4.2933333-10.641333-6.44-18.86-6.44-12.757333 0-25.698667 5.336-38.824 16.008l-2.024-13.432h-22.08V186h27.232zm114.262115 2.208c10.058666 0 18.584-1.226667 25.576-3.68l-2.944-18.952h-11.592c-3.68 0-6.256-.674667-7.728-2.024-1.472-1.349333-2.208-3.741333-2.208-7.176v-42.872h25.208V95.288h-25.208V69.896h-27.048v25.392l-16.008.92v17.296h16.008v48.576c0 8.218667 2.269333 14.628 6.808 19.228 4.538666 4.6 10.917333 6.9 19.136 6.9zM757.720458 186v-62.008c10.304-5.52 18.706667-8.28 25.208-8.28 3.312 0 5.612.766667 6.9 2.3 1.288 1.533333 1.932 4.324 1.932 8.372V186h27.048v-68.08c0-8.218667-2.177333-14.474667-6.532-18.768-4.354667-4.2933333-10.641333-6.44-18.86-6.44-12.144 0-24.533333 4.968-37.168 14.904 1.104-6.378667 1.656-12.696 1.656-18.952V57.2h-27.416V186h27.232zm131.006115 1.656c20.24 0 34.316-4.661333 42.228-13.984 7.912-9.322667 11.868-26.373333 11.868-51.152 0-24.7786667-3.956-41.8293333-11.868-51.152-7.912-9.3226667-21.988-13.984-42.228-13.984-15.456 0-31.893334.552-49.312 1.656V186c17.418666 1.104 33.856 1.656 49.312 1.656zm0-22.08c-2.698667 0-6.409334-.030667-11.132-.092-4.722667-.061333-8.126667-.092-10.212-.092V79.464l21.344-.184c9.445333 0 15.916 3.036 19.412 9.108 3.496 6.072 5.244 17.449333 5.244 34.132s-1.748 28.029333-5.244 34.04c-3.496 6.010667-9.966667 9.016-19.412 9.016zM976.308687 186l9.2-33.304h43.608003l9.2 33.304h28.52l-36.616-119.6c-1.22667-4.9066667-4.47734-7.36-9.752-7.36h-26.496003c-2.330666 0-4.416.6746667-6.256 2.024-1.84 1.3493333-3.005333 3.128-3.496 5.336l-36.616 119.6h28.704zm46.736003-55.016h-31.648003l10.672003-38.824c.368-1.3493333.85866-3.3733333 1.472-6.072.61333-2.6986667 1.04266-4.6613333 1.288-5.888h4.968c.24533 1.84 1.104 5.8266667 2.576 11.96l10.672 38.824zm102.67011 57.408c20.36267 0 34.53067-4.692 42.504-14.076 7.97334-9.384 11.96-26.649333 11.96-51.796 0-25.1466667-3.98666-42.412-11.96-51.796-7.97333-9.384-22.14133-14.076-42.504-14.076-20.36266 0-34.53066 4.7226667-42.504 14.168-7.85066 9.3226667-11.776 26.5573333-11.776 51.704 0 25.146667 3.956 42.412 11.868 51.796 7.912 9.384 22.04934 14.076 42.412 14.076zm0-22.632c-9.568 0-16.1-3.005333-19.596-9.016-3.496-6.010667-5.244-17.418667-5.244-34.224 0-16.805333 1.748-28.2133333 5.244-34.224 3.496-6.0106667 10.028-9.016 19.596-9.016s16.06934 3.0053333 19.504 9.016c3.55734 6.0106667 5.336 17.418667 5.336 34.224 0 16.805333-1.748 28.213333-5.244 34.224-3.496 6.010667-10.028 9.016-19.596 9.016z"/>
    <g stroke="#FFF" stroke-linecap="round" stroke-linejoin="round" stroke-width="22.5674931">
      <path d="M5.64187328 112.8374659v56.4187331M231.316804 112.8374659v56.4187331M95.9118457 33.85124v180.539945M186.181818 90.2699728V203.107438M50.7768595 78.9862262V191.823692M141.046832 67.7024797V248.242425"/>
    </g>
  </g>
</svg>

<?xml version="1.0" encoding="UTF-8"?>
<svg width="1311px" height="294px" viewBox="0 0 1311 294" version="1.1" xmlns="http://www.w3.org/2000/svg" xmlns:xlink="http://www.w3.org/1999/xlink">
    <title>synthdao_logo</title>
    <defs>
        <filter x="-2.3%" y="-9.2%" width="104.1%" height="122.9%" filterUnits="objectBoundingBox" id="filter-1">
            <feOffset dx="0" dy="4" in="SourceAlpha" result="shadowOffsetOuter1"></feOffset>
            <feGaussianBlur stdDeviation="4" in="shadowOffsetOuter1" result="shadowBlurOuter1"></feGaussianBlur>
            <feColorMatrix values="0 0 0 0 0   0 0 0 0 0   0 0 0 0 0  0 0 0 0.5 0" type="matrix" in="shadowBlurOuter1" result="shadowMatrixOuter1"></feColorMatrix>
            <feMerge>
                <feMergeNode in="shadowMatrixOuter1"></feMergeNode>
                <feMergeNode in="SourceGraphic"></feMergeNode>
            </feMerge>
        </filter>
    </defs>
    <g id="Page-1" stroke="none" stroke-width="1" fill="none" fill-rule="evenodd">
        <g id="Website" transform="translate(-114.000000, -495.000000)">
            <g id="Group-2" transform="translate(137.000000, 512.000000)" filter="url(#filter-1)">
                <path d="M388.992,188.392 C406.656,188.392 418.922667,185.846667 425.792,180.756 C432.661333,175.665333 436.096,166.005333 436.096,151.776 C436.096,142.208 434.072,134.449333 430.024,128.5 C425.976,122.550667 419.045333,117.858667 409.232,114.424 L409.232,114.424 L385.128,106.144 C379.976,104.426667 376.48,102.648 374.64,100.808 C372.8,98.968 371.88,95.9626667 371.88,91.792 C371.88,86.64 373.106667,83.42 375.56,82.132 C378.013333,80.844 382.92,80.2 390.28,80.2 C406.104,80.2 419.352,80.384 430.024,80.752 L430.024,80.752 L431.864,61.616 C420.210667,58.304 406.288,56.648 390.096,56.648 C372.922667,56.648 360.932,59.0093333 354.124,63.732 C347.316,68.4546667 343.912,77.808 343.912,91.792 C343.912,101.36 345.936,109.088 349.984,114.976 C354.032,120.864 360.778667,125.525333 370.224,128.96 L370.224,128.96 L395.8,137.976 C400.338667,139.448 403.466667,141.073333 405.184,142.852 C406.901333,144.630667 407.76,147.666667 407.76,151.96 C407.76,156.989333 406.502667,160.301333 403.988,161.896 C401.473333,163.490667 396.474667,164.288 388.992,164.288 C387.152,164.288 373.168,163.981333 347.04,163.368 L347.04,163.368 L345.384,183.608 C360.104,186.797333 374.64,188.392 388.992,188.392 Z M458.542115,222.984 C465.656781,223.842667 472.127448,223.352 477.954115,221.512 C483.780781,219.672 488.656781,216.82 492.582115,212.956 C496.507448,209.092 499.727448,205.074667 502.242115,200.904 C504.756781,196.733333 506.872781,192.194667 508.590115,187.288 L508.590115,187.288 L540.790115,95.288 L511.718115,95.288 L494.974115,153.984 C494.606115,155.333333 493.992781,157.572 493.134115,160.7 C492.275448,163.828 491.662115,166.128 491.294115,167.6 L491.294115,167.6 L488.902115,167.6 C488.166115,162.816 487.246115,158.277333 486.142115,153.984 L486.142115,153.984 L469.214115,95.288 L440.142115,95.288 L469.766115,179.376 C471.115448,183.792 474.059448,186 478.598115,186 L478.598115,186 L483.750115,186 L483.382115,186.736 C481.051448,192.010667 477.800781,196.212 473.630115,199.34 C469.459448,202.468 463.694115,205.013333 456.334115,206.976 L456.334115,206.976 L458.542115,222.984 Z M577.772229,186 L577.772229,123.992 C588.812229,118.472 597.214896,115.712 602.980229,115.712 C606.292229,115.712 608.592229,116.478667 609.880229,118.012 C611.168229,119.545333 611.812229,122.336 611.812229,126.384 L611.812229,126.384 L611.812229,186 L638.860229,186 L638.860229,117.92 C638.860229,109.701333 636.682896,103.445333 632.328229,99.152 C627.973562,94.8586667 621.686896,92.712 613.468229,92.712 C600.710896,92.712 587.769562,98.048 574.644229,108.72 L574.644229,108.72 L572.620229,95.288 L550.540229,95.288 L550.540229,186 L577.772229,186 Z M692.034344,188.208 C702.09301,188.208 710.618344,186.981333 717.610344,184.528 L717.610344,184.528 L714.666344,165.576 L703.074344,165.576 C699.394344,165.576 696.818344,164.901333 695.346344,163.552 C693.874344,162.202667 693.138344,159.810667 693.138344,156.376 L693.138344,156.376 L693.138344,113.504 L718.346344,113.504 L718.346344,95.288 L693.138344,95.288 L693.138344,69.896 L666.090344,69.896 L666.090344,95.288 L650.082344,96.208 L650.082344,113.504 L666.090344,113.504 L666.090344,162.08 C666.090344,170.298667 668.359677,176.708 672.898344,181.308 C677.43701,185.908 683.815677,188.208 692.034344,188.208 Z M757.720458,186 L757.720458,123.992 C768.024458,118.472 776.427125,115.712 782.928458,115.712 C786.240458,115.712 788.540458,116.478667 789.828458,118.012 C791.116458,119.545333 791.760458,122.336 791.760458,126.384 L791.760458,126.384 L791.760458,186 L818.808458,186 L818.808458,117.92 C818.808458,109.701333 816.631125,103.445333 812.276458,99.152 C807.921791,94.8586667 801.635125,92.712 793.416458,92.712 C781.272458,92.712 768.883125,97.68 756.248458,107.616 C757.352458,101.237333 757.904458,94.92 757.904458,88.664 L757.904458,88.664 L757.904458,57.2 L730.488458,57.2 L730.488458,186 L757.720458,186 Z M888.726573,187.656 C908.966573,187.656 923.042573,182.994667 930.954573,173.672 C938.866573,164.349333 942.822573,147.298667 942.822573,122.52 C942.822573,97.7413333 938.866573,80.6906667 930.954573,71.368 C923.042573,62.0453333 908.966573,57.384 888.726573,57.384 C873.270573,57.384 856.833239,57.936 839.414573,59.04 L839.414573,59.04 L839.414573,186 C856.833239,187.104 873.270573,187.656 888.726573,187.656 Z M888.726573,165.576 C886.027906,165.576 882.317239,165.545333 877.594573,165.484 C872.871906,165.422667 869.467906,165.392 867.382573,165.392 L867.382573,165.392 L867.382573,79.464 L888.726573,79.28 C898.171906,79.28 904.642573,82.316 908.138573,88.388 C911.634573,94.46 913.382573,105.837333 913.382573,122.52 C913.382573,139.202667 911.634573,150.549333 908.138573,156.56 C904.642573,162.570667 898.171906,165.576 888.726573,165.576 Z M976.308687,186 L985.508687,152.696 L1029.11669,152.696 L1038.31669,186 L1066.83669,186 L1030.22069,66.4 C1028.99402,61.4933333 1025.74335,59.04 1020.46869,59.04 L1020.46869,59.04 L993.972687,59.04 C991.642021,59.04 989.556687,59.7146667 987.716687,61.064 C985.876687,62.4133333 984.711354,64.192 984.220687,66.4 L984.220687,66.4 L947.604687,186 L976.308687,186 Z M1023.04469,130.984 L991.396687,130.984 L1002.06869,92.16 C1002.43669,90.8106667 1002.92735,88.7866667 1003.54069,86.088 C1004.15402,83.3893333 1004.58335,81.4266667 1004.82869,80.2 L1004.82869,80.2 L1009.79669,80.2 C1010.04202,82.04 1010.90069,86.0266667 1012.37269,92.16 L1012.37269,92.16 L1023.04469,130.984 Z M1125.7148,188.392 C1146.07747,188.392 1160.24547,183.7 1168.2188,174.316 C1176.19214,164.932 1180.1788,147.666667 1180.1788,122.52 C1180.1788,97.3733333 1176.19214,80.108 1168.2188,70.724 C1160.24547,61.34 1146.07747,56.648 1125.7148,56.648 C1105.35214,56.648 1091.18414,61.3706667 1083.2108,70.816 C1075.36014,80.1386667 1071.4348,97.3733333 1071.4348,122.52 C1071.4348,147.666667 1075.3908,164.932 1083.3028,174.316 C1091.2148,183.7 1105.35214,188.392 1125.7148,188.392 Z M1125.7148,165.76 C1116.1468,165.76 1109.6148,162.754667 1106.1188,156.744 C1102.6228,150.733333 1100.8748,139.325333 1100.8748,122.52 C1100.8748,105.714667 1102.6228,94.3066667 1106.1188,88.296 C1109.6148,82.2853333 1116.1468,79.28 1125.7148,79.28 C1135.2828,79.28 1141.78414,82.2853333 1145.2188,88.296 C1148.77614,94.3066667 1150.5548,105.714667 1150.5548,122.52 C1150.5548,139.325333 1148.8068,150.733333 1145.3108,156.744 C1141.8148,162.754667 1135.2828,165.76 1125.7148,165.76 Z" id="SynthDAO" fill="#FFFFFF" fill-rule="nonzero"></path>
                <g id="Group" transform="translate(0.000000, 33.851240)" stroke="#FFFFFF" stroke-linecap="round" stroke-linejoin="round" stroke-width="22.5674931">
                    <line x1="5.64187328" y1="78.9862259" x2="5.64187328" y2="135.404959" id="Line"></line>
                    <line x1="231.316804" y1="78.9862259" x2="231.316804" y2="135.404959" id="Line-Copy-5"></line>
                    <line x1="95.9118457" y1="5.87225401e-16" x2="95.9118457" y2="180.539945" id="Line-Copy-2"></line>
                    <line x1="186.181818" y1="56.4187328" x2="186.181818" y2="169.256198" id="Line-Copy-4"></line>
                    <line x1="50.7768595" y1="45.1349862" x2="50.7768595" y2="157.972452" id="Line-Copy"></line>
                    <line x1="141.046832" y1="33.8512397" x2="141.046832" y2="214.391185" id="Line-Copy-3"></line>
                </g>
            </g>
        </g>
    </g>
</svg>
